svg/fluentui-system-icons/ic_fluent_headset_add_20_filled.svg

<svg width="20" height="20" viewBox="0 0 20 20" fill="none" xmlns="http://www.w3.org/2000/svg">
<path d="M19 5.5C19 7.98528 16.9853 10 14.5 10C12.0147 10 10 7.98528 10 5.5C10 3.01472 12.0147 1 14.5 1C16.9853 1 19 3.01472 19 5.5ZM15 3.5C15 3.22386 14.7761 3 14.5 3C14.2239 3 14 3.22386 14 3.5V5H12.5C12.2239 5 12 5.22386 12 5.5C12 5.77614 12.2239 6 12.5 6H14V7.5C14 7.77614 14.2239 8 14.5 8C14.7761 8 15 7.77614 15 7.5V6H16.5C16.7761 6 17 5.77614 17 5.5C17 5.22386 16.7761 5 16.5 5H15V3.5ZM14.5 11C15.02 11 15.5232 10.9278 16 10.793V11C16 12.1046 15.1046 13 14 13H13C12.4477 13 12 12.5523 12 12V10.4003C12.7501 10.7837 13.5998 11 14.5 11ZM10.2528 2.00523C9.99715 2.31562 9.77481 2.65453 9.59133 3.01646C7.02105 3.22438 5 5.37617 5 8H7C7.55228 8 8 8.44772 8 9V12C8 12.5523 7.55228 13 7 13H5V14C5 15.1046 5.89543 16 7 16H8C8 14.8954 8.89543 14 10 14C11.1046 14 12 14.8954 12 16C12 17.1046 11.1046 18 10 18C9.25972 18 8.61337 17.5978 8.26756 17H7C5.34315 17 4 15.6569 4 14V8C4 4.68629 6.68629 2 10 2C10.0847 2 10.169 2.00176 10.2528 2.00523Z" fill="#212121"/>
</svg>

<svg xmlns="http://www.w3.org/2000/svg" width="20" height="20"><path d="M19 5.5a4.5 4.5 0 1 1-9 0 4.5 4.5 0 0 1 9 0Zm-4-2a.5.5 0 0 0-1 0V5h-1.5a.5.5 0 0 0 0 1H14v1.5a.5.5 0 0 0 1 0V6h1.5a.5.5 0 0 0 0-1H15V3.5Zm-.5 7.5a5.5 5.5 0 0 0 1.5-.207V11a2 2 0 0 1-2 2h-1a1 1 0 0 1-1-1v-1.6c.75.384 1.6.6 2.5.6Zm-4.247-8.995a5.51 5.51 0 0 0-.662 1.011A5 5 0 0 0 5 8h2a1 1 0 0 1 1 1v3a1 1 0 0 1-1 1H5v1a2 2 0 0 0 2 2h1a2 2 0 1 1 .268 1H7a3 3 0 0 1-3-3V8a6 6 0 0 1 6.253-5.995Z"/></svg>
